www/assets/icons/account_tree_outline.svg

<svg xmlns="http://www.w3.org/2000/svg" width="24" height="24" viewBox="0 0 24 24" fill='currentColor'><path d="M22 11V3h-7v3H9V3H2v8h7V8h2v10h4v3h7v-8h-7v3h-2V8h2v3zM7 9H4V5h3zm10 6h3v4h-3zm0-10h3v4h-3z"/></svg>

<svg width="24" height="24" viewBox="0 0 24 24" xmlns="http://www.w3.org/2000/svg" fill='currentColor'><path d="M22 11V3H15V6H9V3H2V11H9V8H11V18H15V21H22V13H15V16H13V8H15V11H22ZM7 9H4V5H7V9ZM17 15H20V19H17V15ZM17 5H20V9H17V5Z"/></svg>
